!!! OTL: Berkowitz440
!!! Chapter: 1
!!! Section: IV
!!! Page: 109
!!! Mode: 
!!! Encoder: DJB
**kern
*staff1
*I"Piano
=1-
*clefC3
*k[f#c#g#d#]
*E:
*M4/4
8e\L
8e\
8e\
8e\J
6f#\
6e\
6c#\
=2
8B/L
8B/
8B/
8B/J
6c#\
6e\
6f#\
=3
8g#\L
8g#\
8g#\
8g#\J
6b\
6g#\
6f#\
=4
4g#\
2b\
4e\
=5
8cc#\L
8cc#\
8cc#\
8cc#\J
6b\
6g#\
6f#\
=6
8e\L
8e\
8e\
8e\J
6c#\
6B/
6c#\
=7
!!linebreak:original
6f#\
6f#\
6f#\
6g#\
6f#\
6g#\
=8
4b\
2B/
4c#\
=9
8e\L
8e\
8e\
8e\J
6f#\
6e\
6c#\
=10
1e
==
*-
